svg/fluentui-system-icons/ic_fluent_comment_link_28_regular.svg

<svg width="28" height="28" viewBox="0 0 28 28" fill="none" xmlns="http://www.w3.org/2000/svg">
<path d="M17.75 3.5C16.5074 3.5 15.5 4.50736 15.5 5.75C15.5 6.99264 16.5074 8 17.75 8H18.25C18.6642 8 19 8.33579 19 8.75C19 9.16421 18.6642 9.5 18.25 9.5H17.75C15.6789 9.5 14 7.82107 14 5.75C14 3.67893 15.6789 2 17.75 2H18.25C18.6642 2 19 2.33579 19 2.75C19 3.16421 18.6642 3.5 18.25 3.5H17.75ZM17 5.75C17 5.33579 17.3358 5 17.75 5H23.25C23.6642 5 24 5.33579 24 5.75C24 6.16421 23.6642 6.5 23.25 6.5H17.75C17.3358 6.5 17 6.16421 17 5.75ZM23.25 8C24.4926 8 25.5 6.99264 25.5 5.75C25.5 4.50736 24.4926 3.5 23.25 3.5H22.75C22.3358 3.5 22 3.16421 22 2.75C22 2.33579 22.3358 2 22.75 2H23.25C25.3211 2 27 3.67893 27 5.75C27 7.82107 25.3211 9.5 23.25 9.5H22.75C22.3358 9.5 22 9.16421 22 8.75C22 8.33579 22.3358 8 22.75 8H23.25ZM24.5 17.25V10.3338C25.0453 10.1855 25.5515 9.94243 26 9.62345V17.25C26 19.3211 24.3211 21 22.25 21H16.309L9.77388 25.7147C8.61646 26.5497 7 25.7227 7 24.2955V21H5.75C3.67893 21 2 19.3211 2 17.25V6.75C2 4.67893 3.67893 3 5.75 3H13.8766C13.5576 3.44848 13.3145 3.95473 13.1662 4.5H5.75C4.50736 4.5 3.5 5.50736 3.5 6.75V17.25C3.5 18.4926 4.50736 19.5 5.75 19.5H8.5V24.2955C8.5 24.4994 8.73092 24.6175 8.89627 24.4982L15.8244 19.5H22.25C23.4926 19.5 24.5 18.4926 24.5 17.25Z" fill="#212121"/>
</svg>

<svg xmlns="http://www.w3.org/2000/svg" width="28" height="28"><path d="M17.75 3.5a2.25 2.25 0 0 0 0 4.5h.5a.75.75 0 0 1 0 1.5h-.5a3.75 3.75 0 1 1 0-7.5h.5a.75.75 0 0 1 0 1.5h-.5ZM17 5.75a.75.75 0 0 1 .75-.75h5.5a.75.75 0 0 1 0 1.5h-5.5a.75.75 0 0 1-.75-.75ZM23.25 8a2.25 2.25 0 0 0 0-4.5h-.5a.75.75 0 0 1 0-1.5h.5a3.75 3.75 0 1 1 0 7.5h-.5a.75.75 0 0 1 0-1.5h.5Zm1.25 9.25v-6.916a4.729 4.729 0 0 0 1.5-.71v7.626A3.75 3.75 0 0 1 22.25 21h-5.941l-6.535 4.715C8.616 26.55 7 25.723 7 24.295V21H5.75A3.75 3.75 0 0 1 2 17.25V6.75A3.75 3.75 0 0 1 5.75 3h8.127a4.728 4.728 0 0 0-.71 1.5H5.75A2.25 2.25 0 0 0 3.5 6.75v10.5a2.25 2.25 0 0 0 2.25 2.25H8.5v4.796c0 .203.23.322.396.202l6.928-4.998h6.426a2.25 2.25 0 0 0 2.25-2.25Z"/></svg>
